src/64x64/places/folder-gruvbox-original-orange-print.svg

<?xml version="1.0" encoding="UTF-8"?>
<svg width="64" height="64" version="1" xmlns="http://www.w3.org/2000/svg">
 <rect x="4" y="22" width="56" height="36" rx="2.8" ry="2.8" opacity=".2"/>
 <path d="m4 46.2c0 1.551 1.2488 2.8 2.8 2.8h50.4c1.551 0 2.8-1.249 2.8-2.8v-30.4c0-1.551-1.249-2.8-2.8-2.8h-25.2c-4.2 0-5.6-6-9.8-6h-15.4c-1.5512 0-2.8 1.2488-2.8 2.8" fill="#af3a03"/>
 <rect x="4" y="20" width="56" height="36" rx="2.8" ry="2.8" opacity=".2"/>
 <rect x="8" y="16" width="48" height="22" rx="2.8" ry="2.8" fill="#F1D8AF"/>
 <rect x="4" y="21" width="56" height="36" rx="2.8" ry="2.8" fill="#fe8019"/>
 <path d="m6.8008 7c-1.5512 0-2.8008 1.2496-2.8008 2.8008v1.0002c0-1.5514 1.2496-2.801 2.8008-2.801h15.398c4.2 0 5.601 6 9.801 6h25.199c1.551 0 2.801 1.25 2.801 2.801v-1c0-1.551-1.25-2.801-2.801-2.801h-25.199c-4.2 0-5.601-6-9.801-6z" fill="#F1D8AF" opacity=".1"/>
 <path d="m26 29v4h12v-4zm-2.57 6c-0.715 0-1.43 0.698-1.43 1.398v5.203c0 0.701 0.715 1.399 1.43 1.399h2.57v6h12v-6h2.57c0.715 0 1.43-0.698 1.43-1.398v-5.203c0-0.701-0.715-1.399-1.43-1.399zm2.57 4h12v2h-12z" fill="#46352B"/>
</svg>

<svg xmlns="http://www.w3.org/2000/svg" width="64" height="64" version="1">
 <rect style="opacity:0.2" width="56" height="36" x="4" y="22" rx="2.8" ry="2.8"/>
 <path style="fill:#af3a03" d="M 4,46.2 C 4,47.751 5.2488,49 6.8,49 H 57.2 C 58.751,49 60,47.751 60,46.2 V 15.8 C 60,14.249 58.751,13 57.2,13 H 32 C 27.8,13 26.4,7 22.2,7 H 6.8 C 5.2488,7 4,8.2488 4,9.8"/>
 <rect style="opacity:0.2" width="56" height="36" x="4" y="20" rx="2.8" ry="2.8"/>
 <rect style="fill:#F1D8AF" width="48" height="22" x="8" y="16" rx="2.8" ry="2.8"/>
 <rect style="fill:#fe8019" width="56" height="36" x="4" y="21" rx="2.8" ry="2.8"/>
 <path style="opacity:0.1;fill:#F1D8AF" d="M 6.8008,7 C 5.2496,7 4,8.2496 4,9.8008 V 10.801 C 4,9.2496 5.2496,8 6.8008,8 H 22.199 C 26.399,8 27.8,14 32,14 H 57.199 C 58.75,14 60,15.25 60,16.801 V 15.801 C 60,14.25 58.75,13 57.199,13 H 32 C 27.8,13 26.399,7 22.199,7 Z"/>
 <path style="fill:#46352B" d="M 26,29 V 33 H 38 V 29 Z M 23.43,35 C 22.715,35 22,35.698 22,36.398 V 41.601 C 22,42.302 22.715,43 23.43,43 H 26 V 49 H 38 V 43 H 40.57 C 41.285,43 42,42.302 42,41.602 V 36.399 C 42,35.698 41.285,35 40.57,35 Z M 26,39 H 38 V 41 H 26 Z"/>
</svg>
